src/components/common/icons/smile.svg

<svg height="40" viewBox="0 0 40 40" width="40" xmlns="http://www.w3.org/2000/svg"><g fill-rule="nonzero"><circle cx="12.825899" cy="16.096883" r="2.769305"/><circle cx="27.22494" cy="16.096883" r="2.769305"/><path d="m20.02494 3.35731415c9.1616307 0 16.6177459 7.45515585 16.6177459 16.61582735 0 9.1606714-7.4532375 16.6139089-16.6148682 16.6139089-9.1616306 0-16.61390883-7.4532375-16.61390883-16.6139089 0-9.1606715 7.45035973-16.61582735 16.61103113-16.61582735zm0-3.32278178c-11.00815343.00191847-19.9366906 8.92757794-19.9366906 19.93860913 0 11.0110312 8.92853717 19.9366906 19.9366906 19.9366906 11.0081535 0 19.9376499-8.9266187 19.9376499-19.9366906 0-11.01007196-8.9266187-19.93669066-19.9376499-19.93669066z"/><path d="m20.02494 32.1016787c-4.6488777.020493-8.8950905-2.6345098-10.91223017-6.8230216l2.98705037-1.4551559c1.4748796 3.031553 4.5505344 4.9555497 7.9218225 4.9555497s6.446943-1.9239967 7.9218226-4.9555497l2.9870503 1.4561151c-2.0167318 4.1856183-6.2594099 6.8396711-10.9055156 6.8220624z"/></g></svg>

<?xml version="1.0" encoding="UTF-8"?>
<svg width="40px" height="40px" viewBox="0 0 40 40" version="1.1" xmlns="http://www.w3.org/2000/svg" xmlns:xlink="http://www.w3.org/1999/xlink">
    <!-- Generator: Sketch 52.5 (67469) - http://www.bohemiancoding.com/sketch -->
    <title>Icons/.smile</title>
    <desc>Created with Sketch.</desc>
    <g id="Vapaaehtoisalusta-Layouts" stroke="none" stroke-width="1" fill="none" fill-rule="evenodd">
        <g id="HKI-Ikonit" transform="translate(-366.000000, -1028.000000)" fill="#000000">
            <g id="Icons/.smile" transform="translate(366.000000, 1028.000000)">
                <g id="smile">
                    <circle id="Oval" fill-rule="nonzero" cx="12.8258993" cy="16.0968825" r="2.76930456"></circle>
                    <circle id="Oval" fill-rule="nonzero" cx="27.22494" cy="16.0968825" r="2.76930456"></circle>
                    <path d="M20.02494,3.35731415 C29.1865707,3.35731415 36.6426859,10.81247 36.6426859,19.9731415 C36.6426859,29.1338129 29.1894484,36.5870504 20.0278177,36.5870504 C10.8661871,36.5870504 3.41390887,29.1338129 3.41390887,19.9731415 C3.41390887,10.81247 10.8642686,3.35731415 20.02494,3.35731415 Z M20.02494,0.0345323741 C9.01678657,0.0364508393 0.0882494005,8.96211031 0.0882494005,19.9731415 C0.0882494005,30.9841727 9.01678657,39.9098321 20.02494,39.9098321 C31.0330935,39.9098321 39.9625899,30.9832134 39.9625899,19.9731415 C39.9625899,8.96306954 31.0359712,0.0364508393 20.02494,0.0364508393 L20.02494,0.0345323741 Z" id="Shape" fill-rule="nonzero"></path>
                    <path d="M20.02494,32.1016787 C15.3760623,32.1221717 11.1298495,29.4671689 9.11270983,25.2786571 L12.0997602,23.8235012 C13.5746398,26.8550542 16.6502946,28.7790509 20.0215827,28.7790509 C23.3928708,28.7790509 26.4685257,26.8550542 27.9434053,23.8235012 L30.9304556,25.2796163 C28.9137238,29.4652346 24.6710457,32.1192874 20.02494,32.1016787 Z" id="Shape" fill-rule="nonzero"></path>
                </g>
            </g>
        </g>
    </g>
</svg>
